X: 212	% 58
T: Yellow Dog Blues
S: Viola Ruth "Pioneer Western Folk Tunes" 1948 p.21 #2
Q: "Blues Rhythm"
Z: 2019 John Chambers <jc:trillian.mit.edu>
M: 2/4
L: 1/16
K: D
V: 1 name="58"
[|\
DEFA- AFED | GABd- d4 | =f^f=f^f dBAF | FEFd- d4 | DEFA- AFED |
GABd- d4 | =f^f=f^f dBA2 | FEFd- d2(3(efg) | Kaefd- d2(fg) |
aefd- d4 | GABd ede2 | =f^f=f^f dBA2 | F2-F2(AB | cecA- A2(AB) |
cecA- A4 | =f^f=f^f dBAF |1 [d4F4-] [d4F4] :|2 d2f2 d'4- | d'4 z4 \}
